www/assets/icons/smoking_rooms.svg

<svg xmlns="http://www.w3.org/2000/svg" width="24" height="24" viewBox="0 0 24 24" fill='currentColor'><path d="M2 17.5h15v3H2zm18.5 0H22v3h-1.5zm-2.5 0h1.5v3H18zm.85-8.27c.62-.61 1-1.45 1-2.38 0-1.85-1.5-3.35-3.35-3.35V5c1.02 0 1.85.83 1.85 1.85S17.52 8.7 16.5 8.7v1.5c2.24 0 4 1.83 4 4.07v2.23H22v-2.24c0-2.22-1.28-4.14-3.15-5.03m-2.82 2.47H14.5c-1.02 0-1.85-.98-1.85-2s.83-1.75 1.85-1.75v-1.5a3.35 3.35 0 0 0 0 6.7h1.53c1.05 0 1.97.74 1.97 2.05v1.3h1.5v-1.64c0-1.81-1.6-3.16-3.47-3.16"/></svg>

<svg width="24" height="24" viewBox="0 0 24 24" xmlns="http://www.w3.org/2000/svg" fill='currentColor'><path d="M2 17.5H17V20.5H2V17.5ZM20.5 17.5H22V20.5H20.5V17.5ZM18 17.5H19.5V20.5H18V17.5ZM18.85 9.23C19.47 8.62 19.85 7.78 19.85 6.85C19.85 5 18.35 3.5 16.5 3.5V5C17.52 5 18.35 5.83 18.35 6.85C18.35 7.87 17.52 8.7 16.5 8.7V10.2C18.74 10.2 20.5 12.03 20.5 14.27V16.5H22V14.26C22 12.04 20.72 10.12 18.85 9.23ZM16.03 11.7H14.5C13.48 11.7 12.65 10.72 12.65 9.7C12.65 8.68 13.48 7.95 14.5 7.95V6.45C12.65 6.45 11.15 7.95 11.15 9.8C11.15 11.65 12.65 13.15 14.5 13.15H16.03C17.08 13.15 18 13.89 18 15.2V16.5H19.5V14.86C19.5 13.05 17.9 11.7 16.03 11.7Z"/></svg>
